X: 35652
T: Sailor On The Rock, The
R: reel
M: 4/4
K: Dmajor
|:d2fd BAFB|AD (3FED FAA2|defd B2AF|ABdf ~e2d2:|
|:faag fddf|gfga bee2|fgfe d2dB|ABdf ~e2d2:|

